build/images/icons-category/icon-mobile.svg

<svg width="23" height="32" viewBox="0 0 23 32" fill="none" xmlns="http://www.w3.org/2000/svg">
<path d="M12.5455 1.6H12.0227C11.7342 1.6 11.5 1.83893 11.5 2.13333C11.5 2.42773 11.7342 2.66667 12.0227 2.66667H12.5455C12.834 2.66667 13.0682 2.42773 13.0682 2.13333C13.0682 1.83893 12.834 1.6 12.5455 1.6Z" fill="white"/>
<path d="M20.9624 0H2.03759C0.91425 0 0 0.947733 0 2.11253V29.8875C0 31.0523 0.91425 32 2.03759 32H20.9619C22.0858 32 23 31.0523 23 29.8875V2.11253C23 0.947733 22.0858 0 20.9624 0ZM10.6542 30.9333H2.03759C1.49082 30.9333 1.04545 30.464 1.04545 29.8875V27.7333H10.6542C10.2151 28.1248 9.93182 28.6933 9.93182 29.3333C9.93182 29.9733 10.2151 30.5419 10.6542 30.9333ZM7.68775 6.24373L6.11957 7.84373C6.01764 7.94773 5.88382 8 5.75 8C5.61618 8 5.48236 7.94773 5.38043 7.84373C5.17604 7.6352 5.17604 7.29813 5.38043 7.0896L6.94861 5.4896C7.153 5.28107 7.48336 5.28107 7.68775 5.4896C7.89214 5.69813 7.89214 6.0352 7.68775 6.24373ZM7.9925 7.088C8.18591 6.89067 8.53614 6.89067 8.73477 7.088C8.82886 7.18933 8.88636 7.328 8.88636 7.46667C8.88636 7.60533 8.82886 7.744 8.73477 7.84533C8.63545 7.94133 8.49955 8 8.36364 8C8.22773 8 8.09182 7.94133 7.9925 7.84533C7.89841 7.744 7.84091 7.60533 7.84091 7.46667C7.84091 7.328 7.89841 7.18933 7.9925 7.088ZM5.07411 6.24373L2.9832 8.37707C2.88127 8.48107 2.74745 8.53333 2.61364 8.53333C2.47982 8.53333 2.346 8.48107 2.24407 8.37707C2.03968 8.16853 2.03968 7.83147 2.24407 7.62293L4.33498 5.4896C4.53936 5.28107 4.86973 5.28107 5.07411 5.4896C5.2785 5.69813 5.2785 6.0352 5.07411 6.24373ZM5.22727 8.53333C5.22727 8.672 5.16977 8.81067 5.07568 8.912C4.97636 9.008 4.84045 9.06667 4.70455 9.06667C4.56864 9.06667 4.43273 9.008 4.33341 8.912C4.23932 8.81067 4.18182 8.672 4.18182 8.53333C4.18182 8.39467 4.23932 8.256 4.33341 8.15467C4.53205 7.95733 4.88227 7.95733 5.07568 8.15467C5.16977 8.256 5.22727 8.39467 5.22727 8.53333ZM2.24407 10.2896L3.28952 9.22293C3.49391 9.0144 3.82427 9.0144 4.02866 9.22293C4.23305 9.43147 4.23305 9.76853 4.02866 9.97707L2.9832 11.0437C2.88127 11.1477 2.74745 11.2 2.61364 11.2C2.47982 11.2 2.346 11.1477 2.24407 11.0437C2.03968 10.8352 2.03968 10.4981 2.24407 10.2896ZM2.24407 12.9563L6.94861 8.15627C7.153 7.94773 7.48336 7.94773 7.68775 8.15627C7.89214 8.3648 7.89214 8.70187 7.68775 8.9104L2.9832 13.7104C2.88127 13.8144 2.74745 13.8667 2.61364 13.8667C2.47982 13.8667 2.346 13.8144 2.24407 13.7104C2.03968 13.5019 2.03968 13.1648 2.24407 12.9563ZM9.03952 6.02293L9.56225 5.4896C9.76664 5.28107 10.097 5.28107 10.3014 5.4896C10.5058 5.69813 10.5058 6.0352 10.3014 6.24373L9.77866 6.77707C9.67673 6.88107 9.54291 6.93333 9.40909 6.93333C9.27527 6.93333 9.14145 6.88107 9.03952 6.77707C8.83514 6.56853 8.83514 6.23147 9.03952 6.02293ZM12.0227 30.4C11.4462 30.4 10.9773 29.9216 10.9773 29.3333C10.9773 28.7451 11.4462 28.2667 12.0227 28.2667C12.5993 28.2667 13.0682 28.7451 13.0682 29.3333C13.0682 29.9216 12.5993 30.4 12.0227 30.4ZM21.9545 29.8875C21.9545 30.464 21.5092 30.9333 20.9624 30.9333H13.3912C13.8303 30.5419 14.1136 29.9733 14.1136 29.3333C14.1136 28.6933 13.8303 28.1248 13.3912 27.7333H21.9545V29.8875ZM21.9545 3.2H1.04545V2.11253C1.04545 1.536 1.49082 1.06667 2.03759 1.06667H20.9619C21.5092 1.06667 21.9545 1.536 21.9545 2.11253V3.2Z" fill="white"/>
</svg>

<svg width="23" height="32" fill="none" xmlns="http://www.w3.org/2000/svg"><path d="M12.546 1.6h-.523a.528.528 0 00-.523.533c0 .295.234.534.523.534h.523a.528.528 0 00.522-.534.528.528 0 00-.522-.533z" fill="#fff"/><path d="M20.962 0H2.038C.914 0 0 .948 0 2.113v27.774C0 31.052.914 32 2.038 32h18.924C22.086 32 23 31.052 23 29.887V2.113C23 .948 22.086 0 20.962 0zM10.654 30.933H2.038c-.547 0-.993-.469-.993-1.046v-2.154h9.61c-.44.392-.723.96-.723 1.6 0 .64.283 1.209.722 1.6zM7.688 6.243l-1.568 1.6a.516.516 0 01-.74 0 .54.54 0 010-.753l1.569-1.6a.515.515 0 01.739 0 .54.54 0 010 .754zm.304.845a.54.54 0 01.743 0c.094.101.151.24.151.379a.567.567 0 01-.151.378.544.544 0 01-.371.155.544.544 0 01-.372-.155.567.567 0 01-.151-.378c0-.139.057-.278.151-.379zm-2.918-.844l-2.09 2.133a.516.516 0 01-.74 0 .54.54 0 010-.754L4.335 5.49a.515.515 0 01.74 0 .54.54 0 010 .754zm.153 2.29a.567.567 0 01-.151.378.544.544 0 01-.371.155.544.544 0 01-.372-.155.567.567 0 01-.151-.379c0-.138.057-.277.151-.378a.54.54 0 01.743 0c.094.101.151.24.151.378zM2.244 10.29L3.29 9.223a.515.515 0 01.739 0 .54.54 0 010 .754l-1.046 1.067a.516.516 0 01-.739 0 .54.54 0 010-.754zm0 2.666l4.705-4.8a.515.515 0 01.739 0 .54.54 0 010 .754l-4.705 4.8a.516.516 0 01-.739 0 .54.54 0 010-.754zM9.04 6.023l.522-.533a.515.515 0 01.74 0 .54.54 0 010 .754l-.523.533a.516.516 0 01-.74 0 .54.54 0 010-.754zM12.023 30.4a1.057 1.057 0 01-1.046-1.067c0-.588.47-1.066 1.046-1.066.576 0 1.045.478 1.045 1.066 0 .589-.469 1.067-1.045 1.067zm9.931-.512c0 .576-.445 1.045-.992 1.045h-7.57a2.14 2.14 0 00.722-1.6 2.14 2.14 0 00-.723-1.6h8.563v2.154zm0-26.688H1.046V2.113c0-.577.446-1.046.993-1.046h18.924c.547 0 .992.469.992 1.046V3.2z" fill="#fff"/></svg>
